X: 17786
T: Honingkoekjes
R: jig
M: 6/8
K: Gmajor
|B2A- AG2|d3- dcB|B2A- A3|FGA ABc|
Bz2 EFG|FGA AGF|Gz2 GAB|BAG ABc|
B2A- AG2|d3- dcB|B2A- A3|FGA AGF|
G2d- dG2|F2d- dF2|E3 EFG|ABA ABc||
B2A- AG2|e3- edc|ABc B3|EFG FGA|
B2A- AGA|BAG GAB|BAG AGA|BAG GFE|
DEF E3|cde edc|ABc B3|e3 efg|
A3 AGA|BAG GAB|ABc BAG|e2g- gcA||

